X:204
T:Chapel Bell, The
R:jig
C:Frank McCollum, Ballycastle, Co. Antrim
D:Kevin Burke: Close Up
Z:id:hn-jig-204
M:6/8
K:Edor
B2E EFA|Bde ~d3|edB BAB|d2e dBA|
B2E EFA|Bde ~d3|edB BAF|AFE EFA:|
|:B2e efe|def f2e|dBB BAB|dBe dBA|
B2e efe|def f2e|dBB BAF|AFE EFA:|

